img/Shape.3.svg

<svg width="48" height="48" viewBox="0 0 48 48" fill="none" xmlns="http://www.w3.org/2000/svg">
<path fill-rule="evenodd" clip-rule="evenodd" d="M46.6084 6.02009C46.3272 5.8487 45.9782 5.83076 45.6808 5.97285L38.0566 9.56428C35.3686 10.8303 33.5647 13.4392 33.3292 16.4011L33.1326 18.8368L29.1822 25.3982V22.5966C29.1822 22.5922 29.1811 22.588 29.1799 22.5838C29.1787 22.5794 29.1775 22.575 29.1775 22.5699C29.176 22.4736 29.1606 22.3777 29.131 22.2857L27.293 16.7717L31.0459 9.26838C31.2107 8.9344 31.1726 8.53559 30.9474 8.2386L25.047 0.371278C24.6896 -0.0630492 24.0476 -0.125305 23.6129 0.232117C23.562 0.273865 23.5155 0.32074 23.4737 0.371278L17.573 8.2386C17.3496 8.53669 17.3133 8.93513 17.4796 9.26838L21.2325 16.7717L19.3945 22.2857C19.3648 22.3777 19.3495 22.4736 19.348 22.5699V22.5966V26.5213L13.2213 17.2221C13.2173 17.2167 13.2123 17.2123 13.2074 17.2082C13.2028 17.2042 13.1983 17.2004 13.1949 17.1958C13.1356 17.1137 13.0645 17.0416 12.9836 16.9812C12.976 16.9756 12.9686 16.9697 12.9612 16.9638L12.9612 16.9637C12.9506 16.9552 12.94 16.9466 12.9283 16.939C12.9185 16.9325 12.9128 16.9275 12.9079 16.9233C12.9032 16.9192 12.8993 16.9157 12.8932 16.9123L9.28781 14.8275L7.7911 12.5559L5.62752 9.27131C5.37923 8.89485 4.90645 8.73555 4.48092 8.88496L0.654374 10.2271C0.142777 10.4091 -0.124924 10.9713 0.0570831 11.4829C0.0834503 11.5579 0.118973 11.629 0.162918 11.6953L2.86812 15.8023L4.36007 18.0728L4.85152 22.2092C4.85409 22.2224 4.85738 22.2356 4.86141 22.2484C4.86581 22.2693 4.87093 22.2901 4.87716 22.3103C4.8995 22.4143 4.93868 22.5142 4.99325 22.6054C4.99673 22.6104 4.99847 22.6161 5.0002 22.6217C5.00194 22.6274 5.00368 22.6331 5.00716 22.638L5.67112 23.6439L5.67188 23.6451C8.53096 27.9772 19.6405 44.8107 19.7021 44.863C20.4214 46.7523 22.233 48.0007 24.2545 48C24.6559 47.9996 25.0558 47.9509 25.4454 47.8546C26.7125 47.5437 27.8027 46.7395 28.4733 45.62L41.5525 23.9223L43.6176 22.6153C44.7026 21.9254 45.613 20.9941 46.2788 19.894C47.1237 18.4947 47.5346 16.8757 47.4588 15.2428L47.0753 6.82282C47.0636 6.49397 46.8886 6.19257 46.6084 6.02009ZM39.4856 23.5444L37.964 26.0709L32.9103 23.0226L34.4337 20.4961L39.4856 23.5444ZM21.3149 23.5799V38.4463L27.2153 28.6604V23.5799H21.3149ZM23.0076 17.6795H25.5231L26.8337 21.613H21.6965L23.0076 17.6795ZM23.2818 9.81221C23.2818 10.3553 23.722 10.7955 24.2651 10.7955C24.8082 10.7955 25.2488 10.3553 25.2488 9.81221C25.2488 9.26912 24.8082 8.82893 24.2651 8.82893C23.722 8.82893 23.2818 9.26912 23.2818 9.81221ZM24.2651 2.60077L29.0142 8.9322L25.6241 15.7126H25.2484V12.5815C26.7847 12.0384 27.59 10.3527 27.0465 8.81648C26.5034 7.28022 24.8181 6.47529 23.2818 7.01838C21.7456 7.56147 20.9407 9.24714 21.4837 10.7834C21.7807 11.6235 22.4418 12.2845 23.2818 12.5815V15.7126H22.9061L19.5161 8.9322L24.2651 2.60077ZM10.2407 18.0088L10.53 17.818L8.10092 16.4117C7.96908 16.3352 7.85665 16.2293 7.77242 16.1019L6.69064 14.4598L5.04854 15.5416L6.12997 17.1837C6.2142 17.3111 6.2673 17.4561 6.28561 17.6077L6.61886 20.3946L10.2407 18.0088ZM4.40804 10.9921L5.60775 12.8144L3.96566 13.8962L2.49056 11.6641L4.40804 10.9921ZM12.1153 19.1231L9.65658 20.7469L7.19308 22.3714L19.348 40.8212V30.0952L12.1153 19.1231ZM26.7916 44.5983C25.9578 45.9983 24.1472 46.4575 22.7472 45.6237C21.3471 44.7902 20.8883 42.9792 21.7218 41.5792L21.7271 41.5707L21.7397 41.5499L29.1654 29.2346H29.1822V29.2082L31.8944 24.709L34.4209 26.2353L36.951 27.7555L26.7916 44.5983ZM42.5706 20.9472C43.3975 20.4221 44.0918 19.7124 44.599 18.8745C45.2435 17.8066 45.5567 16.5717 45.4992 15.3263L45.3959 13.0642L43.0986 13.6336C41.6082 13.9987 40.4542 15.1783 40.1217 16.6765C40.0214 17.1254 39.6229 17.4448 39.163 17.4455C39.0905 17.4455 39.0183 17.4371 38.9476 17.4206C38.4177 17.302 38.0845 16.7764 38.2031 16.2465C38.6957 14.0185 40.4118 12.2644 42.6284 11.7231L45.0103 11.1328C45.1073 11.1134 45.2069 11.1093 45.3054 11.1199L45.1802 8.37922L38.8865 11.3422C36.8375 12.3079 35.4624 14.2965 35.2822 16.5545L35.12 18.6196L37.972 20.3368L40.8237 22.0536L42.5706 20.9472Z" fill="#2BD0D0"/>
</svg>

<svg xmlns="http://www.w3.org/2000/svg" width="48" height="48" fill="none"><path fill="#2BD0D0" fill-rule="evenodd" d="M46.608 6.02a.975.975 0 0 0-.927-.047l-7.624 3.591a8.283 8.283 0 0 0-4.728 6.837l-.196 2.436-3.95 6.561v-2.801a.047.047 0 0 0-.003-.013c-.001-.005-.003-.009-.003-.014a.978.978 0 0 0-.046-.284l-1.838-5.514 3.753-7.504a.984.984 0 0 0-.099-1.03l-5.9-7.867a1.019 1.019 0 0 0-1.573 0L17.573 8.24a.984.984 0 0 0-.093 1.03l3.753 7.503-1.838 5.514a.974.974 0 0 0-.047.284v3.951l-6.127-9.299a.083.083 0 0 0-.014-.014l-.012-.012a.993.993 0 0 0-.211-.215l-.023-.017a.285.285 0 0 0-.033-.025c-.01-.006-.015-.012-.02-.016l-.015-.01-3.605-2.085-1.497-2.272L5.628 9.27a.983.983 0 0 0-1.147-.386L.654 10.227a.983.983 0 0 0-.491 1.468l2.705 4.107 1.492 2.27.492 4.137a.36.36 0 0 0 .01.04.7.7 0 0 0 .015.061.973.973 0 0 0 .116.295c.004.005.005.011.007.017a.055.055 0 0 0 .007.016l.664 1.006v.001c2.86 4.332 13.97 21.166 14.031 21.218A4.87 4.87 0 0 0 24.254 48c.402 0 .802-.05 1.191-.145a4.886 4.886 0 0 0 3.028-2.235l13.08-21.698 2.065-1.307a8.344 8.344 0 0 0 2.66-2.721 8.259 8.259 0 0 0 1.18-4.651l-.383-8.42a.983.983 0 0 0-.467-.803Zm-7.122 17.524-1.522 2.527-5.054-3.048 1.524-2.527 5.052 3.048Zm-18.171.036v14.866l5.9-9.786v-5.08h-5.9Zm1.693-5.9h2.515l1.31 3.933h-5.136l1.31-3.933Zm.274-7.868a.983.983 0 1 0 1.966 0 .983.983 0 0 0-1.966 0Zm.983-7.211 4.75 6.331-3.39 6.78h-.377v-3.13a2.95 2.95 0 1 0-1.966 0v3.13h-.376l-3.39-6.78 4.75-6.331ZM10.241 18.009l.289-.191-2.43-1.406a.988.988 0 0 1-.328-.31L6.691 14.46l-1.642 1.082 1.081 1.642a.982.982 0 0 1 .156.424l.333 2.787 3.622-2.386Zm-5.833-7.017 1.2 1.822-1.642 1.082-1.475-2.232 1.917-.672Zm7.707 8.131-2.458 1.624-2.464 1.624 12.155 18.45V30.095l-7.233-10.972Zm14.677 25.475a2.95 2.95 0 1 1-5.07-3.019l.005-.008.013-.021 7.425-12.315h.017v-.027l2.712-4.499 2.527 1.526 2.53 1.52-10.16 16.843Zm15.779-23.65a6.304 6.304 0 0 0 2.929-5.62l-.104-2.264-2.297.57a4.032 4.032 0 0 0-2.977 3.043.984.984 0 1 1-1.919-.43 5.987 5.987 0 0 1 4.425-4.524l2.382-.59a.974.974 0 0 1 .295-.013l-.125-2.74-6.294 2.962a6.318 6.318 0 0 0-3.604 5.213l-.162 2.065 2.852 1.717 2.852 1.717 1.747-1.107Z" clip-rule="evenodd"/></svg>
